client/public/assets/icons/custom/custom55.svg

<?xml version="1.0"?><svg xmlns="http://www.w3.org/2000/svg" width="100" height="100" viewBox="0 0 100 100"><g fill="#fff"><path d="m32 61h13c1.1 0 2-0.9 2-2v-30c0-2.2-2-4-4-4h-10.7c-1.3 0-2.3 1-2.3 2.3v31.7c0 1.1 0.9 2 2 2z m44-30v32c0 2.2-1.8 4-4 4h-44c-2.2 0-4-1.8-4-4v-32c-3.3 0-6 2.7-6 6v30c0 3.3 2.7 6 6 6h19c1.1 0 2 0.9 2 2s0.9 2 2 2h6c1.1 0 2-0.9 2-2s0.9-2 2-2h19c3.3 0 6-2.7 6-6v-30c0-3.3-2.7-6-6-6z m-21 30h12.7c1.3 0 2.3-1 2.3-2.3v-31.7c0-1.1-0.9-2-2-2h-11c-2 0-4 1.8-4 4v30c0 1.1 0.9 2 2 2z"></path></g></svg>

<?xml version="1.0" encoding="utf-8"?>
<!-- Generator: Adobe Illustrator 16.0.0, SVG Export Plug-In . SVG Version: 6.00 Build 0)  -->
<!DOCTYPE svg PUBLIC "-//W3C//DTD SVG 1.1//EN" "http://www.w3.org/Graphics/SVG/1.1/DTD/svg11.dtd">
<svg version="1.1" id="Layer_1" xmlns="http://www.w3.org/2000/svg" xmlns:xlink="http://www.w3.org/1999/xlink" x="0px" y="0px"
	 width="100px" height="100px" viewBox="0 0 100 100" enable-background="new 0 0 100 100" xml:space="preserve">
<g>
	<path fill="#FFFFFF" d="M32,61h13c1.1,0,2-0.9,2-2V29c0-2.2-2-4-4-4H32.3C31,25,30,26,30,27.3V57v2C30,60.1,30.9,61,32,61z"/>
	<path fill="#FFFFFF" d="M76,31v32c0,2.2-1.8,4-4,4H28c-2.2,0-4-1.8-4-4V31c-3.3,0-6,2.7-6,6v30c0,3.3,2.7,6,6,6h19c1.1,0,2,0.9,2,2
		l0,0c0,1.1,0.9,2,2,2h6c1.1,0,2-0.9,2-2l0,0c0-1.1,0.9-2,2-2h19c3.3,0,6-2.7,6-6V37C82,33.7,79.3,31,76,31z"/>
	<path fill="#FFFFFF" d="M55,61h12.7c1.3,0,2.3-1,2.3-2.3V57V27c0-1.1-0.9-2-2-2H57c-2,0-4,1.8-4,4v30C53,60.1,53.9,61,55,61z"/>
</g>
</svg>
